resources/dark/notifications-off.svg

<svg fill="none" height="16" viewBox="0 0 16 16" width="16" xmlns="http://www.w3.org/2000/svg" xmlns:xlink="http://www.w3.org/1999/xlink"><linearGradient id="a" gradientUnits="userSpaceOnUse" x1="7.5" x2="7.5" y1="2" y2="14"><stop offset="0" stop-color="#6d78f5"/><stop offset="1" stop-color="#936cf7"/></linearGradient><path d="m3.95433 11.375c-.3783 0-.56728-.4779-.30094-.7545.56934-.5912 1.04032-1.15634 1.14312-2.84716l-1.05573-.96736c-.00437.07649-.0066.1531-.00668.22973 0 1.92031-.39611 2.32716-.77961 2.72058-1.08548 1.11341-.29054 2.74371 1.00027 2.74371h2.10079c0 .8284.64671 1.5 1.44445 1.5s1.44444-.6716 1.44444-1.5h1.0106l-1.22778-1.125zm3.54567 1.6875c-.29869 0-.54167-.2523-.54167-.5625h1.08333c0 .3102-.24298.5625-.54166.5625zm6.4067.013-1.5331-1.3962c.2957-.5653.26-1.32-.328-1.92289-.3835-.3934-.7797-.80023-.7797-2.7207 0-1.94592-1.3758-3.56423-3.17027-3.86161.08264-.12476.1268-.27267.12659-.4241 0-.41421-.32335-.75-.72222-.75s-.72223.33579-.72223.75c-.0002.15143.04395.29934.1266.4241-.93598.15511-1.75796.66963-2.33028 1.40252l-2.75124-2.50544c-.11415-.10397-.28837-.09272-.38909.0251l-.36479.42668c-.100732.11782-.089854.29763.02433.40158l12.0839 11.00426c.1141.104.2883.0927.3891-.0251l.3648-.4267c.1007-.1178.0898-.2976-.0244-.4015zm-6.4067-8.8255c1.47916 0 2.6825 1.24966 2.6825 2.78571 0 2.28867.5241 2.9197 1.1639 3.58479.0656.0682.1032.1483.1176.2305l-6.07465-5.53197c.49147-.65027 1.2547-1.06903 2.11065-1.06903z" fill="url(#a)"/></svg>

<svg width="16" height="16" viewBox="0 0 16 16" fill="none" xmlns="http://www.w3.org/2000/svg">
<path d="M3.95433 11.375C3.57603 11.375 3.38705 10.8971 3.65339 10.6205C4.22273 10.0293 4.69371 9.46416 4.79651 7.77334L3.74078 6.80598C3.73641 6.88247 3.73418 6.95908 3.7341 7.03571C3.7341 8.95602 3.33799 9.36287 2.95449 9.75629C1.86901 10.8697 2.66395 12.5 3.95476 12.5H6.05555C6.05555 13.3284 6.70226 14 7.5 14C8.29774 14 8.94444 13.3284 8.94444 12.5H9.95504L8.72726 11.375H3.95433ZM7.5 13.0625C7.20131 13.0625 6.95833 12.8102 6.95833 12.5H8.04166C8.04166 12.8102 7.79868 13.0625 7.5 13.0625ZM13.9067 13.0755L12.3736 11.6793C12.6693 11.114 12.6336 10.3593 12.0456 9.75641C11.6621 9.36301 11.2659 8.95618 11.2659 7.03571C11.2659 5.08979 9.8901 3.47148 8.09563 3.1741C8.17827 3.04934 8.22243 2.90143 8.22222 2.75C8.22222 2.33579 7.89887 2 7.5 2C7.10113 2 6.77777 2.33579 6.77777 2.75C6.77757 2.90143 6.82172 3.04934 6.90437 3.1741C5.96839 3.32921 5.14641 3.84373 4.57409 4.57662L1.82285 2.07118C1.7087 1.96721 1.53448 1.97846 1.43376 2.09628L1.06897 2.52296C0.968238 2.64078 0.979116 2.82059 1.0933 2.92454L13.1772 13.9288C13.2913 14.0328 13.4655 14.0215 13.5663 13.9037L13.9311 13.477C14.0318 13.3592 14.0209 13.1794 13.9067 13.0755ZM7.5 4.25C8.97916 4.25 10.1825 5.49966 10.1825 7.03571C10.1825 9.32438 10.7066 9.95541 11.3464 10.6205C11.412 10.6887 11.4496 10.7688 11.464 10.851L5.38935 5.31903C5.88082 4.66876 6.64405 4.25 7.5 4.25Z" fill="url(#paint0_linear)"/>
<defs>
<linearGradient id="paint0_linear" x1="7.5" y1="2" x2="7.5" y2="14" gradientUnits="userSpaceOnUse">
<stop stop-color="#6D78F5"/>
<stop offset="1" stop-color="#936CF7"/>
</linearGradient>
</defs>
</svg>
